!!!!SEGMENT: pl-sa--79-a-ii-19--008_siwinski-andrzej--missa-pro-defunctis-rex-tremende.krn
!!!cenid: 17xx:300
!!!COM: Siwiński, Andrzej
!!!COM-rismid: pe41011487
!!!CDT: <1725->1725
!!!CNT:
!!!OTL: Missa pro defunctis – Rex tremende
!!!PDT: 1726
!!!AGN: Sacred; Mass
!!!SMS-siglum: PL-SA
!!!SMS-shelfmark: 79/A II 19
!!!SMS-shelfwork: 001-008 M
!!!NIFC-rismid: 1001070177
!!!URL-scan: http://bc.bdsandomierz.pl/dlibra/publication/1356/edition/1324/content
!!!ONB-nifc: Uwaga: części Mszy: Requiem, Kyrie, Dies Irae, Quantus tremor, Tuba mirrum, Mors, Quid sum miser, Rex tremende, Quaerens me, Iuste iudex, Oro supplex, Pie Iesu Domine, Domine Iesu Christe,Quam olim Abrahae, Hostias, Sanctus, Osanna, Benedictus, Agnus Dei
**kern	**fba	**kern	**kern	**kern	**text	**kern	**text	**kern	**text	**kern	**text	**kern	**kern
*part9	*part9	*part8	*part7	*part6	*part6	*part5	*part5	*part4	*part4	*part3	*part3	*part2	*part1
*staff9	*staff9	*staff8	*staff7	*staff6	*staff6	*staff5	*staff5	*staff4	*staff4	*staff3	*staff3	*staff2	*staff1
*I"P9	*	*I"Violino 2do	*I"Violino 1mo	*I"P6	*	*I"P5	*	*I"Alto.	*	*I"Canto	*	*I"Hobois 2do.	*I"Hautbo. 1mo.
*I'bc	*	*I'vl 2	*I'vl 1	*I'B	*	*I'T	*	*I'A	*	*I'S	*	*I'ob 2	*I'ob 1
*clefF4	*	*clefG2	*clefG2	*clefF4	*	*clefC4	*	*clefC3	*	*clefC1	*	*clefG2	*clefG2
*k[b-e-]	*	*k[b-e-]	*k[b-e-]	*k[b-e-]	*	*k[b-e-]	*	*k[b-e-]	*	*k[b-e-]	*	*k[b-e-]	*k[b-e-]
*M2/2	*	*M2/2	*M2/2	*M2/2	*	*M2/2	*	*M2/2	*	*M2/2	*	*M2/2	*M2/2
*met(c|)	*	*met(c|)	*met(c|)	*met(c|)	*	*met(c|)	*	*met(c|)	*	*met(c|)	*	*met(c|)	*met(c|)
=1	=1	=1	=1	=1	=1	=1	=1	=1	=1	=1	=1	=1	=1
!LO:TX:b:t=Rex tremende	!	!	!LO:SIC:o:s:=:v:znaki na początku systemu.brak powtórzenia przy kluczu	!	!	!LO:SIC:o:s:=:v:znaki na początku systemu.brak powtórzenia przy kluczu	!	!LO:SIC:o:s:=:v:znaki na początku systemu.brak powtórzenia przy kluczu	!	!	!	!LO:SIC:o:s:=:v:znaki na początku systemu.brak powtórzenia przy kluczu	!LO:SIC:o:s:=:v:znaki na początku systemu.brak powtórzenia przy kluczu
!LO:SIC:o:s:=:v: brak nazwy partii (na stronie tytułowej "Baſso pro Organo")	!	!	!	!LO:SIC:o:s:=:v: brak nazwy partii (na stronie tytułowej "Baſso vocali")	!	!LO:SIC:o:s:=:v: brak nazwy partii (na stronie tytułowej "Tenore")	!	!	!	!	!	!	!
!LO:TX:a:t=Tutti	!	!	!LO:SIC:o:s:=:v:specyficzne alle breve	!	!	!	!	!	!	!	!	!	!
4C/	.	4cc\	4gg\	4C/	Rex	4e-\	Rex	4g\	Rex	4cc\	Rex	4e-/	4cc\
8r	.	8r	8r	8r	.	8r	.	8r	.	8r	.	8r	8r
!	!	!	!	!	!	!	!	!	!	!	!	!LO:SIC:o:s:=:v:kasownik nad pięciolinią	!
8G\	.	8dd\	8gg\	8G\	trae-	8Bn\	tre-	8g\	tre-	8dd\	tre-	8bn\	8dd\
8C/L	.	8ee-\L	2gg\	8c\L	-men-	8c\L	-men-	2gT\	-men-	8ee-\L	-men-	8cc\L	8ee-\L
8BBn/	6	8dd\	.	8Bn\	.	8d\	.	.	.	8dd\	.	8g\	8dd\
8C/	.	8ee-\	.	8c\	.	8e-\	.	.	.	8ee-\	.	8cc\	8ee-\
!	!	!LO:SIC:o:s:=:v:kasownik nad pięciolinią	!	!	!	!LO:SIC:o:s:=:v:kasownik nad pięciolinią	!	!	!	!	!	!LO:SIC:o:s:=:v:kasownik nad pięciolinią	!
8GG/J	.	8bn\J	.	8G\J	.	8B\J	.	.	.	8dd\J	.	8bn\J	8dd\J
=2	=2	=2	=2	=2	=2	=2	=2	=2	=2	=2	=2	=2	=2
8C/L	.	8cc\L	4gg\	8c\L	.	8c\L	.	4g\	.	8ee-\L	.	8cc\L	8ee-\L
!	!	!	!	!	!	!	!	!	!	!	!	!LO:SIC:o:s:=:v:kasownik nad pięciolinią	!
8BBn/	.	8dd\	.	8Bn\	.	8c\	.	.	.	8dd\	.	8bn\	8dd\
8C/	.	8ee-\	8gg\L	8c\	.	8e-\	.	8g\	-de	8ee-\	.	8cc\	8ee-\
!	!	!	!LO:SIC:o:s:=:v:bemol nad pięciolinią	!LO:SIC:o:s:=:v:bemol nad pięciolinią	!	!	!	!	!	!	!	!LO:SIC:o:s:=:v:bemol nad pięciolinią	!
.	7	.	.	.	.	.	.	.	.	.	.	.	.
8AA-X/J	6	8cc\J	8aa-X\J	8A-X\J	.	8c\J	.	8a-X\	tre-	8cc\J	.	8a-X\J	8cc\J
!	!	!	!	!	!	!	!	!LO:LB:g=original	!	!	!	!	!
!	!	!	!	!	!	!	!	!	!	!	!	!LO:SIC:o:s:=:v:kasownik nad pięciolinią	!
4GG/	.	8bn\L	8dd\L	8G\	.	8d\	.	8g\	-men-	8bn\	.	8bn\L	8dd\L
.	.	8b\J	8dd\J	8G\	-de	8d\	-de	8g\	-de	8b\	-de	8bn\J	8dd\J
8r	.	4r	4r	8r	.	4r	.	4r	.	8r	.	4r	4r
8G\	.	.	.	8G\	trae-	.	.	.	.	8dd\	tre-	.	.
!	!	!	!	!	!	!	!	!	!	!	!	!	!LO:LB:g=original
=3	=3	=3	=3	=3	=3	=3	=3	=3	=3	=3	=3	=3	=3
!LO:TX:a:t=P:mixed beam:problem	!	!	!	!	!	!LO:TX:a:t=3	!	!	!	!	!	!	!LO:TX:a:t=3
8c\L	.	0r	0r	8c\L	-men-	0r	.	0r	.	8ee-\L	-men-	0r	0r
8C/J	.	.	.	16d\L	.	.	.	.	.	(16ff\L	.	.	.
.	.	.	.	16c\JJ	.	.	.	.	.	16ee-\JJ)	.	.	.
8r	.	.	.	8c\L	.	.	.	.	.	8ee-\L	.	.	.
!LO:TX:a:t=P:mixed beam:problem	!	!	!	!	!	!	!	!	!	!	!	!	!
8c\L	.	.	.	16d\L	.	.	.	.	.	(16ff\L	.	.	.
.	.	.	.	16c\JJ	.	.	.	.	.	16ee-\JJ)	.	.	.
8Bn\	6	.	.	8Bn\L	.	.	.	.	.	8dd\L	.	.	.
8BBn/J	.	.	.	16c\L	.	.	.	.	.	(16ee-\L	.	.	.
.	.	.	.	16B\JJ	.	.	.	.	.	16dd\JJ)	.	.	.
8r	.	.	.	8Bn\L	.	.	.	.	.	8dd\L	.	.	.
8G\	.	.	.	16c\L	.	.	.	.	.	(16ee-\L	.	.	.
.	.	.	.	16B\JJ	.	.	.	.	.	16dd\JJ)	.	.	.
=4	=4	=4	=4	=4	=4	=4	=4	=4	=4	=4	=4	=4	=4
!LO:TX:a:t=P:mixed beam:problem	!	!	!	!	!	!	!	!	!	!	!	!	!
8A-X\L	.	.	.	8A-X\L	.	.	.	.	.	8cc\L	.	.	.
8AA-X/J	.	.	.	16B-\L	.	.	.	.	.	(16dd\L	.	.	.
.	.	.	.	16A-\JJ	.	.	.	.	.	16cc\JJ)	.	.	.
8r	.	.	.	8A-X\L	.	.	.	.	.	8cc\L	.	.	.
8F\	.	.	.	16B-\L	.	.	.	.	.	(16dd\L	.	.	.
.	.	.	.	16A-\JJ	.	.	.	.	.	16cc\JJ)	.	.	.
8G\L	.	.	.	8G\	.	.	.	.	.	8bn\	.	.	.
8A-\	.	.	.	8G\	-de	.	.	.	.	8b\	-de	.	.
8Bn\	6	.	.	8r	.	.	.	.	.	8r	.	.	.
8G\J	.	.	.	8G\	trea-	.	.	.	.	8dd\	tre-	.	.
!	!	!	!	!LO:LB:g=original	!	!	!	!	!	!	!	!	!
=5	=5	=5	=5	=5	=5	=5	=5	=5	=5	=5	=5	=5	=5
!LO:TX:a:t=P:mixed beam:problem	!	!	!	!	!	!	!	!	!	!	!	!	!
8c\L	.	1r	1r	8c\L	-men-	1r	.	1r	.	8ee-\L	-men-	1r	1r
8C/J	.	.	.	16d\L	.	.	.	.	.	(16ff\L	.	.	.
.	.	.	.	16c\JJ	.	.	.	.	.	16ee-\JJ)	.	.	.
8r	.	.	.	8c\L	.	.	.	.	.	8ee-\L	.	.	.
!LO:TX:a:t=P:mixed beam:problem	!	!	!	!	!	!	!	!	!	!	!	!	!
8c\L	.	.	.	16d\L	.	.	.	.	.	(16ff\L	.	.	.
.	.	.	.	16c\JJ	.	.	.	.	.	16ee-\JJ)	.	.	.
8Bn\	6	.	.	8Bn\L	.	.	.	.	.	8dd\L	.	.	.
8BBn/J	.	.	.	16c\L	.	.	.	.	.	(16ee-\L	.	.	.
.	.	.	.	16B\JJ	.	.	.	.	.	16dd\JJ)	.	.	.
8r	.	.	.	8Bn\L	.	.	.	.	.	8dd\L	.	.	.
8G\	.	.	.	16c\L	.	.	.	.	.	(16ee-\L	.	.	.
.	.	.	.	16B\JJ	.	.	.	.	.	16dd\JJ)	.	.	.
!	!	!	!	!	!	!	!	!	!	!LO:LB:g=original	!	!	!
=6	=6	=6=	=6	=6	=6	=6	=6	=6-	=6	=6	=6	=6	=6
8A-X\L	.	2r	2r	8A-X\L	.	2r	.	2r	.	8cc\L	.	2r	2r
8AA-X/J	.	.	.	16B-\L	.	.	.	.	.	(16dd\L	.	.	.
.	.	.	.	16A-\JJ	.	.	.	.	.	16cc\JJ)	.	.	.
!LO:LB:g=original	!	!	!	!	!	!	!	!	!	!	!	!	!
8r	.	.	.	8A-X\L	.	.	.	.	.	8cc\L	.	.	.
8F\	.	.	.	16B-\L	.	.	.	.	.	(16dd\L	.	.	.
.	.	.	.	16A-\JJ	.	.	.	.	.	16cc\JJ)	.	.	.
4G\	.	4r	4r	8G\	.	4r	.	4r	.	8bn\	.	4r	4r
.	.	.	.	8G\	-de	.	.	.	.	8b\	-de	.	.
8r	.	8r	8r	8r	.	8r	.	8r	.	8r	.	8r	8r
!	!	!	!	!	!	!	!	!	!	!	!	!LO:SIC:o:s:=:v:kasownik nad pięciolinią	!
8G\	.	8dd\	8gg\	8G\	trae-	8Bn\	tre-	8g\	tre-	8dd\	tre-	8bn\	8dd\
!	!	!	!	!	!	!	!	!	!	!	!	!LO:LB:g=original	!
=7	=7	=7	=7	=7	=7	=7	=7	=7	=7	=7	=7	=7	=7
8c\L	.	8cc\L	4gg\	8c\L	-men-	8c\L	-men-	4g\	-men-	8ee-\L	-men-	8cc\L	8ee-\L
!	!	!	!	!	!	!	!	!	!	!	!	!LO:SIC:o:s:=:v:kasownik nad pięciolinią	!
8Bn\	6	8dd\	.	8Bn\	.	8d\	.	.	.	8dd\	.	8bn\	8dd\
8c\	.	8ee-\	8gg\L	8c\	.	8e-\	.	8g\	-de	8ee-\	.	8cc\	8ee-\
!	!	!	!LO:SIC:o:s:=:v:bemol nad pięciolinią	!	!	!	!	!	!	!	!	!LO:SIC:o:s:=:v:bemol nad pięciolinią	!
.	7	.	.	.	.	.	.	.	.	.	.	.	.
8A-X\J	6	8cc\J	8aa-X\J	8A-X\J	.	8c\J	.	8a-X\	tre-	8cc\J	.	8a-X\J	8cc\J
!	!	!LO:SIC:o:s:=:v:kasownik nad pięciolinią	!	!	!	!	!	!	!	!LO:SIC:o:s:=:v:kasownik nad pięciolinią	!	!LO:SIC:o:s:=:v:kasownik nad pięciolinią	!
4G\	.	8bn\L	8dd\L	8G\	.	8d\	.	8g\	-men-	8bn\	.	8bn\L	8dd\L
.	.	8b\J	8dd\J	8G\	-de	8d\	-de	8g\	-de	8b\	-de	8b\J	8dd\J
!	!	!	!LO:LB:g=original	!	!	!	!	!	!	!	!	!	!
8r	.	8r	8r	8r	.	8r	.	8r	.	8r	.	8r	8r
!	!	!	!	!	!	!LO:SIC:o:s:=:v:kasownik nad pięciolinią	!	!	!	!	!	!LO:SIC:o:s:=:v:kasownik nad pięciolinią	!
*	*	*	*	*	*ij	*	*ij	*	*ij	*	*	*	*
8G\	.	8dd\	8gg\	8G\	trae-	8Bn\	tre-	8g\	tre-	8dd\	tre-	8bn\	8dd\
=8	=8	=8	=8	=8	=8	=8	=8	=8	=8	=8	=8	=8	=8
8c\L	.	8cc\L	4gg\	8c\L	-men-	8c\L	-men-	4g\	-men-	8ee-\L	-men-	8cc\L	8ee-\L
!	!	!	!	!	!	!	!	!	!	!	!	!LO:SIC:o:s:=:v:kasownik nad pięciolinią	!
8Bn\	6	8dd\	.	8Bn\	.	8d\	.	.	.	8dd\	.	8bn\	8dd\
8c\	.	8ee-\	8gg\L	8c\	.	8e-\	.	8g\	-de	8ee-\	.	8cc\	8ee-\
!	!	!	!LO:SIC:o:s:=:v:bemol nad pięciolinią	!	!	!	!	!	!	!	!	!LO:SIC:o:s:=:v:bemol nad pięciolinią	!
.	7	.	.	.	.	.	.	.	.	.	.	.	.
8A-X\J	6	8cc\J	8aa-X\J	8A-X\J	.	8c\J	.	8a-X\	tre-	8cc\J	.	8a-X\J	8cc\J
!	!	!	!	!	!	!	!	!	!	!LO:SIC:o:s:=:v:kasownik nad pięciolinią	!	!LO:SIC:o:s:=:v:kasownik nad pięciolinią	!
4G\	.	8bn\L	8dd\L	8G\	.	8d\	.	8g\	-men-	8bn\	.	8b\L	8dd\L
.	.	8b\J	8dd\J	8G\	-de	8d\	-de	8g\	-de	8b\	-de	8bn\J	8dd\J
*	*	*	*	*	*Xij	*	*Xij	*	*Xij	*	*	*	*
!	!	!	!	!	!	!LO:LB:g=original	!	!	!	!	!	!	!
8r	.	8r	8r	8r	.	8r	.	8r	.	8r	.	8r	8r
!	!	!	!	!	!	!LO:SIC:o:s:=:v:kasownik nad pięciolinią	!	!	!	!	!	!	!
8C/	.	8ee-\	8gg\	8C/	trae-	8Bn\	tre-	8g\	tre-	8ee-\	tre-	8cc\	8ee-\
!	!	!	!	!LO:LB:g=original	!	!	!	!	!	!	!	!	!
=9	=9	=9	=9	=9	=9	=9	=9	=9	=9	=9	=9	=9	=9
8F\L	.	8cc\L	8aa-X\L	8F\	-men-	8c\	-men-	8a-X\	-men-	8cc\	-men-	8ff\L	8cc\L
8G\	.	8cc\	8gg\	8G\	-de	8d\	-de	8g\	-de	8cc\	-de	8gg\	8cc\
!	!	!	!LO:SIC:o:s:=:v:bemol nad pięciolinią	!	!	!	!	!	!	!	!	!	!
8A-X\	.	8cc\	8aa-X\	8A-X\	ma-	8e-\	Ma-	8a-X\	ma-	8cc\	ma-	8ee-\	8cc\
8F\J	.	8cc\J	8aa-\J	8F\	-ie-	8c\	-ie-	8f\	-ie-	8cc\	-ie-	8cc\J	8cc\J
!LO:TX:a:t=P:mixed beam:problem	!	!	!	!LO:TX:a:t=P:mixed beam:problem	!	!	!	!	!	!	!	!	!
8G\L	.	8dd\L	8gg\L	8G\L	-sta-	(8Bn\L	-sta-	2g\	-sta-	2dd\	-sta-	2g/	8dd\L
!	!	!	!LO:SIC:o:s:=:v:bemol nad pięciolinią	!	!	!	!	!	!	!	!	!	!
8F\	.	8cc\J	8aa-X\J	(8F\	.	8c\J	.	.	.	.	.	.	8ee-\J
8G\	.	4dd\	4gg\	8G\	.	4Bn\)	.	.	.	.	.	.	4dd\
.	4	.	.	.	.	.	.	.	.	.	.	.	.
8GG/J	3	.	.	8GG/J)	.	.	.	.	.	.	.	.	.
!	!	!LO:LB:g=original	!	!	!	!	!	!	!	!	!	!	!
=10	=10	=10	=10	=10	=10	=10	=10	=10	=10	=10	=10	=10	=10
4C/	.	8ee-\L	8gg\L	4C/	-tis	4c\	-tis	4g\	-tis	4cc\	-tis	4e-/	4cc\
!	!	!	!LO:SIC:o:s:=:v:bemol nad pięciolinią	!	!	!	!	!	!	!	!	!	!
.	.	(16ff\L	16aa-X\L	.	.	.	.	.	.	.	.	.	.
.	.	16ee-\JJ)	16gg\JJ	.	.	.	.	.	.	.	.	.	.
4r	.	8ee-\L	8gg\L	4r	.	4r	.	4r	.	4r	.	4r	4r
!	!	!	!LO:SIC:o:s:=:v:bemol nad pięciolinią	!	!	!	!	!	!	!	!	!	!
.	.	(16ff\L	16aa-X\L	.	.	.	.	.	.	.	.	.	.
.	.	16ee-\JJ)	16gg\JJ	.	.	.	.	.	.	.	.	.	.
!	!	!	!LO:SIC:o:s:=:v:bemol nad pięciolinią	!	!	!	!	!	!	!	!	!	!
4F\	-	4ff\	4aa-X\	2r	.	2r	.	2r	.	2r	.	8cc\L	8ff\L
.	.	.	.	.	.	.	.	.	.	.	.	(16dd\L	(16gg\L
.	.	.	.	.	.	.	.	.	.	.	.	16cc\JJ)	16ff\JJ)
4r	.	4r	4r	.	.	.	.	.	.	.	.	8dd\L	8ff\L
.	.	.	.	.	.	.	.	.	.	.	.	(16ee-\L	(16gg\L
.	.	.	.	.	.	.	.	.	.	.	.	16dd\JJ)	16ff\JJ)
!	!	!	!	!	!	!	!	!LO:LB:g=original	!	!	!	!	!
=11	=11	=11	=11	=11	=11	=11	=11	=11	=11	=11-	=11	=11	=11
!	!	!	!	!LO:TX:a:t=9	!	!LO:TX:a:t=3	!	!LO:TX:a:t=3.	!	!	!	!	!
4BB-/	.	8dd\L	8ff\L	00r	.	0r	.	0r	.	0r	.	4b-\	4dd\
.	.	(16ee-\L	(16gg\L	.	.	.	.	.	.	.	.	.	.
.	.	16dd\JJ)	16ff\JJ)	.	.	.	.	.	.	.	.	.	.
4r	.	8dd\L	8ff\L	.	.	.	.	.	.	.	.	4r	4r
.	.	(16ee-\L	(16gg\L	.	.	.	.	.	.	.	.	.	.
.	.	16dd\JJ)	16ff\JJ)	.	.	.	.	.	.	.	.	.	.
4E-\	.	4ee-\	4gg\	.	.	.	.	.	.	.	.	8b-\L	8ee-\L
.	.	.	.	.	.	.	.	.	.	.	.	(16cc\L	(16ff\L
.	.	.	.	.	.	.	.	.	.	.	.	16b-\JJ)	16ee-\JJ)
4r	.	4r	4r	.	.	.	.	.	.	.	.	8cc\L	8ee-\L
.	.	.	.	.	.	.	.	.	.	.	.	(16dd\L	(16ff\L
.	.	.	.	.	.	.	.	.	.	.	.	16cc\JJ)	16ee-\JJ)
=12	=12	=12	=12	=12	=12	=12	=12	=12	=12	=12	=12	=12	=12
4C/	.	8cc\L	8ee-\L	.	.	.	.	.	.	.	.	4g/	4cc\
.	.	(16dd\L	(16ff\L	.	.	.	.	.	.	.	.	.	.
.	.	16cc\JJ)	16ee-\JJ)	.	.	.	.	.	.	.	.	.	.
4r	.	8cc\L	8ee-\L	.	.	.	.	.	.	.	.	4r	4r
.	.	(16dd\L	(16ff\L	.	.	.	.	.	.	.	.	.	.
.	.	16cc\JJ)	16ee-\JJ)	.	.	.	.	.	.	.	.	.	.
!	!	!	!	!	!	!	!	!	!	!	!	!	!LO:LB:g=original
4D\	.	8dd\L	16ee-\LL	.	.	.	.	.	.	.	.	16dd\LL	16ff\LL
.	.	.	16ff\	.	.	.	.	.	.	.	.	16ee-\	16gg\
.	.	8cc\J	16dd\	.	.	.	.	.	.	.	.	16cc\	16ee-\
.	.	.	16ee-\JJ	.	.	.	.	.	.	.	.	16dd\JJ	16ff\JJ
!LO:TX:a:t=P:mixed beam:problem	!	!LO:SIC:o:s:=:v:kasownik nad pięciolinią	!	!	!	!	!	!	!	!	!	!	!
8G\L	.	4bn\	8.dd\L	.	.	.	.	.	.	.	.	4g/	8.ddt\L
8GG/J	4	.	.	.	.	.	.	.	.	.	.	.	.
.	3	.	16cc\Jk	.	.	.	.	.	.	.	.	.	16cc\Jk
!LO:LB:g=original	!	!	!	!	!	!	!	!	!	!	!	!LO:LB:g=original	!
=13	=13	=13	=13	=13	=13	=13	=13	=13	=13	=13	=13	=13	=13
8C/L	.	4cc\	4cc\	.	.	1r	.	1r	.	1r	.	4en/	4cc\
16GG/L	.	.	.	.	.	.	.	.	.	.	.	.	.
16AA/JJ	.	.	.	.	.	.	.	.	.	.	.	.	.
8BB-/L	.	8r	8r	.	.	.	.	.	.	.	.	4r	4r
!	!	!LO:SIC:o:s:=:v:8b	!	!	!	!	!	!	!	!	!	!	!
8GG/J	.	8bn\	8dd\	.	.	.	.	.	.	.	.	.	.
8AA/L	6	16a/LL	16cc\LL	.	.	.	.	.	.	.	.	2r	2r
!	!	!LO:SIC:o:s:=:v:16b	!	!	!	!	!	!	!	!	!	!	!
.	.	16b/	16dd\	.	.	.	.	.	.	.	.	.	.
16BB-/L	.	16g/	16b-\	.	.	.	.	.	.	.	.	.	.
16C/JJ	.	16a/JJ	16cc\JJ	.	.	.	.	.	.	.	.	.	.
8D/L	.	4f#X/	8.a/L	.	.	.	.	.	.	.	.	.	.
8DD/J	4	.	.	.	.	.	.	.	.	.	.	.	.
.	3	.	16g/Jk	.	.	.	.	.	.	.	.	.	.
=14	=14	=14	=14	=14	=14	=14	=14	=14-	=14	=14	=14	=14	=14-
4GG/	.	4g/	4g/	.	.	4r	.	2r	.	2r	.	00r	00r
4F#X\	6	4r	4r	.	.	8d\	Qui	.	.	.	.	.	.
.	.	.	.	.	.	8d\	sal-	.	.	.	.	.	.
4G\	.	2r	2r	.	.	8.B-\L	-van-	4r	.	4r	.	.	.
.	.	.	.	.	.	16A\Jk	.	.	.	.	.	.	.
*clefC4	*	*	*	*	*	*	*	*	*	*	*	*	*
*k[b-e-]	*	*	*	*	*	*	*	*	*	*	*	*	*
16G\LL	.	.	.	.	.	4G/	-do	8g\	Qui	8b-\	Qui	.	.
16A\	.	.	.	.	.	.	.	.	.	.	.	.	.
16B-\	.	.	.	.	.	.	.	8g\	sal-	8b-\	sal-	.	.
16c\JJ	.	.	.	.	.	.	.	.	.	.	.	.	.
!	!	!LO:LB:g=original	!LO:LB:g=original	!	!	!	!	!	!	!LO:LB:g=original	!	!	!
=15	=15	=15	=15	=15	=15	=15	=15	=15	=15	=15	=15	=15	=15
!	!	!LO:TX:a:t=3	!LO:TX:a:t=3	!	!	!	!	!	!	!	!	!	!
4d\	.	0r	0r	00r	.	4r	.	(8.f#X\L	-van-	(8.a\L	-van-	.	.
.	.	.	.	.	.	.	.	16en\Jk)	.	16g\Jk)	.	.	.
4D/	.	.	.	.	.	8d\	Sal-	4d\	-do	4f#X/	-do	.	.
.	.	.	.	.	.	8d\	-vas	.	.	.	.	.	.
4.e-\	6	.	.	.	.	4.e-X\	gra-	8g\	Sal-	8b-\	Sal-	.	.
.	.	.	.	.	.	.	.	8g\	-vas	8b-\	-vas	.	.
.	.	.	.	.	.	.	.	4g\	gra-	8b-\L	gra-	.	.
16d\LL	7	.	.	.	.	(16d\LL	.	.	.	(16cc\L	.	.	.
16c\JJ	6	.	.	.	.	16c\JJ)	.	.	.	16b-\JJ)	.	.	.
=16	=16	=16	=16	=16	=16	=16	=16	=16	=16	=16	=16	=16	=16
8d\L	.	.	.	.	.	4d\	-tis	4f#X\	-tis	4a\	-tis	.	.
16d\L	.	.	.	.	.	.	.	.	.	.	.	.	.
16c\JJ	.	.	.	.	.	.	.	.	.	.	.	.	.
8B-\L	.	.	.	.	.	4r	.	4r	.	4r	.	.	.
8A\J	.	.	.	.	.	.	.	.	.	.	.	.	.
*clefF4	*	*	*	*	*	*	*	*	*	*	*	*	*
*k[b-e-]	*	*	*	*	*	*	*	*	*	*	*	*	*
8G\L	.	.	.	.	.	4.d\	Sal-	4.g\	Sal-	4.b-\	Sal-	.	.
8A\	.	.	.	.	.	.	.	.	.	.	.	.	.
8B-\	.	.	.	.	.	.	.	.	.	.	.	.	.
8G\J	.	.	.	.	.	8d\	-va	8g\	-va	8b-\	-va	.	.
=17	=17	=17	=17	=17	=17	=17	=17	=17	=17	=17	=17	=17	=17
8A\L	6#	1r	1r	.	.	4.c\	me	4.f#X\	me	4.a\	me	.	.
8G\	.	.	.	.	.	.	.	.	.	.	.	.	.
8F#X\	6	.	.	.	.	.	.	.	.	.	.	.	.
8D\J	.	.	.	.	.	8d\	fons	8f#\	fons	8b-\	fons	.	.
!LO:TX:a:t=P:mixed beam:problem	!	!	!	!	!	!	!	!	!	!	!	!	!
8BB-/L	6	.	.	.	.	8B-\	pi-	8d\	pi-	8g/	pi-	.	.
8GG/	.	.	.	.	.	(16c\LL	-e-	8d\	-e-	(16a\LL	-e-	.	.
.	.	.	.	.	.	16d\JJ)	.	.	.	16b-\JJ)	.	.	.
8D\	.	.	.	.	.	4A/	-ta-	4d\	-ta-	4f#X/	-ta-	.	.
.	4	.	.	.	.	.	.	.	.	.	.	.	.
8DD/J	3	.	.	.	.	.	.	.	.	.	.	.	.
!	!	!	!	!	!	!LO:LB:g=original	!	!	!	!	!	!	!
=18	=18	=18	=18	=18	=18	=18	=18	=18	=18	=18	=18	=18	=18
!	!	!	!	!	!	!LO:SIC:o:s:=:v:kreska taktowa	!	!	!	!	!	!	!
8GG/L	.	4r	4r	.	.	4G/	-tis	4d\	-tis	4g/	-tis	1r	1r
8AA/	.	.	.	.	.	.	.	.	.	.	.	.	.
8BB-/	.	8r	8r	.	.	4r	.	4r	.	4r	.	.	.
8GG/J	.	8b-/	8dd\	.	.	.	.	.	.	.	.	.	.
!LO:LB:g=original	!	!	!	!	!	!	!	!	!	!	!	!	!
8AA/L	6	16a/LL	16cc\LL	.	.	2r	.	2r	.	2r	.	.	.
.	.	16b-/	16dd\	.	.	.	.	.	.	.	.	.	.
16BB-/L	.	16g/	16b-\	.	.	.	.	.	.	.	.	.	.
16C/JJ	.	16a/JJ	16cc\JJ	.	.	.	.	.	.	.	.	.	.
8D/L	.	4f#X/	8.a/L	.	.	.	.	.	.	.	.	.	.
8DD/J	4	.	.	.	.	.	.	.	.	.	.	.	.
.	3	.	16g/Jk	.	.	.	.	.	.	.	.	.	.
=19	=19	=19	=19	=19	=19	=19-	=19	=19	=19	=19-	=19	=19	=19
!	!	!	!	!	!	!	!	!	!	!LO:TX:a:t=1.	!	!	!
8GG/L	.	4g/	4g/	1r	.	1r	.	1r	.	1r	.	4r	4r
16C/L	.	.	.	.	.	.	.	.	.	.	.	.	.
16D/JJ	.	.	.	.	.	.	.	.	.	.	.	.	.
8E-\L	.	4r	4r	.	.	.	.	.	.	.	.	8r	8r
8C\J	.	.	.	.	.	.	.	.	.	.	.	8ee-\	8gg\
4D/	6	2r	2r	.	.	.	.	.	.	.	.	16dd\LL	(16ff\LL
.	.	.	.	.	.	.	.	.	.	.	.	16ee-\	16gg\)
.	.	.	.	.	.	.	.	.	.	.	.	16cc\	(16ee-\
.	.	.	.	.	.	.	.	.	.	.	.	16dd\JJ	16ff\JJ)
!LO:TX:a:t=P:mixed beam:problem	!	!	!	!	!	!	!	!	!	!	!	!	!
8G\L	.	.	.	.	.	.	.	.	.	.	.	4g/	8.dd\L
8GG/J	.	.	.	.	.	.	.	.	.	.	.	.	.
.	.	.	.	.	.	.	.	.	.	.	.	.	16cc\Jk
=20	=20	=20	=20	=20	=20	=20-	=20	=20	=20	=20	=20	=20	=20
!	!	!	!	!	!	!	!	!	!	!	!	!LO:TX:a:t=P:mixed beam:problem	!
4C/	.	8cc\L	8ee-\L	4r	.	4r	.	4r	.	4r	.	8e-/L	8cc\L
.	.	(16dd\L	(16ff\L	.	.	.	.	.	.	.	.	8cc\J	8ee-\J
.	.	16cc\JJ)	16ee-\JJ)	.	.	.	.	.	.	.	.	.	.
8r	.	8cc\L	8ee-\L	8c\	Sal-	8c\	Sal-	8g\	Sal-	8ee-\	Sal-	8cc\L	8ee-\L
!LO:TX:a:t=P:mixed beam:problem	!	!	!	!	!	!	!	!	!	!	!	!	!
8c\L	2	(16dd\L	(16ff\L	8c\	-va	8c\	-va	8g\	-va	8ee-\	-va	(16dd\L	(16ff\L
.	.	16cc\JJ)	16ee-\JJ)	.	.	.	.	.	.	.	.	16cc\JJ)	16ee-\JJ)
8Bn\	.	8bn\L	8dd\L	4Bn\	me	4d\	me	4g\	me	4dd\	me	8bn\L	8dd\L
8BBn/J	6	(16cc\L	(16ee-\L	.	.	.	.	.	.	.	.	(16cc\L	(16ee-\L
.	.	16b\JJ)	16dd\JJ)	.	.	.	.	.	.	.	.	16b\JJ)	16dd\JJ)
8r	.	8bn\L	8dd\L	4r	.	4r	.	4r	.	4r	.	8bn\L	8dd\L
8G\	.	(16cc\L	(16ee-\L	.	.	.	.	.	.	.	.	(16cc\L	(16ee-\L
.	.	16b\JJ)	16dd\JJ)	.	.	.	.	.	.	.	.	16b\JJ)	16dd\JJ)
!	!	!	!	!	!	!	!	!LO:LB:g=original	!	!	!	!	!
=21	=21	=21	=21	=21	=21	=21	=21	=21	=21	=21	=21	=21	=21
!LO:TX:a:t=P:mixed beam:problem	!	!	!	!	!	!	!	!	!	!	!	!	!
8A-X\L	.	8a-X/L	8cc\L	4r	.	4r	.	4r	.	4r	.	8a-X/L	8cc\L
8AA-X/J	.	(16b-/L	(16dd\L	.	.	.	.	.	.	.	.	(16b-/L	(16dd\L
.	.	16a-/JJ)	16cc\JJ)	.	.	.	.	.	.	.	.	16a-/JJ)	16cc\JJ)
*	*	*	*	*	*ij	*	*ij	*	*ij	*	*	*	*
8r	.	8a-/L	8cc\L	8A-X\	Sal-	8e-\	Sal-	8a-X\	Sal-	8cc\	Sal-	8a-X/L	8cc\L
8F\	-	(16b-/L	(16dd\L	8A-\	-ve	8e-\	-va	8a-\	-va	8cc\	-va	(16b-/L	(16dd\L
.	.	16a-/JJ)	16cc\JJ)	.	.	.	.	.	.	.	.	16a-/JJ)	16cc\JJ)
!	!	!	!	!	!	!	!	!	!	!LO:SIC:o:s:=:v:kasownik nad pięciolinią	!	!	!
4G\	.	4g/	4bn\	4G\	me	4d\	ma	4g\	me	4bn\	me	4bn\	4dd\
8r	.	4r	4r	8r	.	8r	.	8r	.	8r	.	8r	8r
*	*	*	*	*	*Xij	*	*Xij	*	*Xij	*	*	*	*
8C/	.	.	.	8C/	dons	8c\	fons	8g\	fons	8ee-\	fons	8g/	8ee-\
!	!	!	!	!	!	!	!	!	!	!LO:LB:g=original	!	!	!
=22	=22	=22	=22	=22	=22	=22	=22	=22	=22	=22	=22	=22	=22
!LO:TX:a:t=P:mixed beam:problem	!	!	!	!	!	!	!	!	!	!	!	!	!
8F\L	.	2r	2r	8F\	pi-	8f\	pi-	8a-X\	pi-	8cc\	pi-	8a-X/L	8cc\L
8C\	.	.	.	8C/	-ae-	8e-\	-e-	8g\	-e-	8cc\	-e-	8g/J	16dd\L
.	.	.	.	.	.	.	.	.	.	.	.	.	16ee-\JJ
!	!	!	!	!	!	!	!	!	!	!LO:SIC:o:s:=:v:kasownik nad pięciolinią	!	!	!
8G\	.	.	.	4G\	-ta-	4d\	-ta-	4g\	-ta-	4bn\	-ta-	4g/	8.dd\L
8GG/J	4	.	.	.	.	.	.	.	.	.	.	.	.
.	3	.	.	.	.	.	.	.	.	.	.	.	16cc\Jk
4C/	.	8ee-\L	8gg\L	4C/	-tis	4c\	-tis	4g\	-tis	4cc\	-tis	4e-/	4cc\
!	!	!	!LO:SIC:o:s:=:v:bemol nad pięciolinią	!	!	!	!	!	!	!	!	!	!
.	.	(16ff\L	16aa-X\L	.	.	.	.	.	.	.	.	.	.
.	.	16ee-\JJ)	16gg\JJ	.	.	.	.	.	.	.	.	.	.
4r	.	8ee-\L	8gg\L	4r	.	4r	.	4r	.	4r	.	4r	4r
.	.	(16ff\L	16aa-\L	.	.	.	.	.	.	.	.	.	.
.	.	16ee-\JJ)	16gg\JJ	.	.	.	.	.	.	.	.	.	.
!	!	!	!	!	!	!	!	!	!	!	!	!LO:LB:g=original	!LO:LB:g=original
=23	=23	=23	=23	=23	=23	=23	=23	=23	=23	=23	=23	=23	=23
!	!	!	!LO:SIC:o:s:=:v:bemol nad pięciolinią	!	!	!	!	!	!	!	!	!	!
!	!	!	!	!LO:TX:a:t=2	!	!	!	!	!	!	!	!	!
4F\	-	4ff\	4aa-X\	0r	.	0r	.	0r	.	0r	.	8cc\L	8ff\L
.	.	.	.	.	.	.	.	.	.	.	.	(16dd\L	(16gg\L
.	.	.	.	.	.	.	.	.	.	.	.	16cc\JJ)	16ff\JJ)
4r	.	4r	4r	.	.	.	.	.	.	.	.	8dd\L	8ff\L
.	.	.	.	.	.	.	.	.	.	.	.	(16ee-\L	(16gg\L
.	.	.	.	.	.	.	.	.	.	.	.	16dd\JJ)	16ff\JJ)
4BB-/	.	8dd\L	8ff\L	.	.	.	.	.	.	.	.	4b-\	4dd\
.	.	(16ee-\L	(16gg\L	.	.	.	.	.	.	.	.	.	.
.	.	16dd\JJ)	16ff\JJ)	.	.	.	.	.	.	.	.	.	.
4r	.	8dd\L	8ff\L	.	.	.	.	.	.	.	.	4r	4r
.	.	(16ee-\L	(16gg\L	.	.	.	.	.	.	.	.	.	.
.	.	16dd\JJ)	16ff\JJ)	.	.	.	.	.	.	.	.	.	.
!	!	!LO:LB:g=original	!	!	!	!	!	!	!	!	!	!	!
=24	=24	=24	=24	=24	=24	=24	=24	=24	=24	=24	=24	=24	=24
4E-\	.	4ee-\	4gg\	.	.	.	.	.	.	.	.	8b-\L	8ee-\L
.	.	.	.	.	.	.	.	.	.	.	.	(16cc\L	(16ff\L
.	.	.	.	.	.	.	.	.	.	.	.	16b-\JJ)	16ee-\JJ)
4r	.	4r	4r	.	.	.	.	.	.	.	.	8cc\L	8ee-\L
.	.	.	.	.	.	.	.	.	.	.	.	(16dd\L	(16ff\L
.	.	.	.	.	.	.	.	.	.	.	.	16cc\JJ)	16ee-\JJ)
4C/	.	8cc\L	8ee-\L	.	.	.	.	.	.	.	.	4g/	4cc\
.	.	(16dd\L	(16ff\L	.	.	.	.	.	.	.	.	.	.
.	.	16cc\JJ)	16ee-\JJ)	.	.	.	.	.	.	.	.	.	.
!	!	!	!LO:LB:g=original	!	!	!	!	!	!	!	!	!	!
4r	.	8cc\L	8ee-\L	.	.	.	.	.	.	.	.	4r	4r
.	.	(16dd\L	(16ff\L	.	.	.	.	.	.	.	.	.	.
.	.	16cc\JJ)	16ee-\JJ)	.	.	.	.	.	.	.	.	.	.
!LO:LB:g=original	!	!	!	!LO:LB:g=original	!	!	!	!	!	!	!	!	!
=25	=25	=25	=25	=25	=25	=25	=25	=25	=25	=25	=25	=25	=25
4F\	.	8dd\L	16ff\LL	2r	.	2r	.	2r	.	2r	.	16dd\LL	16ff\LL
.	.	.	16gg\	.	.	.	.	.	.	.	.	16ee-\	16gg\
.	.	8cc\J	16ee-\	.	.	.	.	.	.	.	.	16cc\	16ee-\
.	.	.	16ff\JJ	.	.	.	.	.	.	.	.	16dd\JJ	16ff\JJ
!LO:TX:a:t=P:mixed beam:problem	!	!	!	!	!	!	!	!	!	!	!	!	!
8G\L	.	4bn\	8.dd\L	.	.	.	.	.	.	.	.	4g/	8.dd\L
8GG/J	.	.	.	.	.	.	.	.	.	.	.	.	.
.	.	.	16cc\Jk	.	.	.	.	.	.	.	.	.	16cc\Jk
4C/	.	8cc\L	8cc\L	4r	.	4r	.	4r	.	4r	.	8e-/L	8cc\L
.	.	8cc\J	8ee-\J	.	.	.	.	.	.	.	.	8cc/J	8ee-\J
8r	.	8cc\L	8ee-\L	8c\	Sal-	8c\	Sal-	8g\	.	8ee-\	Sl-	8cc\L	8ee-\L
8c\	.	(16dd\L	(16ff\L	8c\	-va	8c\	-va	8g\	.	8ee-\	-va	(16dd\L	(16ff\L
.	.	16cc\JJ)	16ee-\JJ)	.	.	.	.	.	.	.	.	16cc\JJ)	16ee-\JJ)
=26	=26	=26	=26	=26	=26	=26	=26	=26	=26	=26	=26	=26	=26
!LO:TX:a:t=P:mimxed beam:problem	!	!	!	!	!	!	!	!	!	!	!	!	!
8Bn\L	.	8bnX\L	8dd\L	4Bn\	me	4d\	me	4g\	.	4dd\	me	8bn\L	8dd\L
8BBn/J	.	16cc\L	(16ee-\L	.	.	.	.	.	.	.	.	(16cc\L	(16ee-\L
.	.	16bny\JJ	16dd\JJ)	.	.	.	.	.	.	.	.	16b\JJ)	16dd\JJ)
8r	.	8bny\L	8dd\L	4r	.	4r	.	4r	.	4r	.	8b\L	8dd\L
!LO:TX:a:t=P:mixed beam:problem	!	!	!	!	!	!	!	!	!	!	!	!	!
8G\L	.	16cc\L	(16ee-\L	.	.	.	.	.	.	.	.	(16cc\L	(16ee-\L
.	.	16b\JJ	16dd\JJ)	.	.	.	.	.	.	.	.	16b\JJ)	16dd\JJ)
8A-X\	.	8a-X/L	8cc\L	4r	.	4r	.	4r	.	4r	.	8a-X/L	8cc\L
!LO:SIC:o:s:=:v:4AA-	!	!LO:SIC:o:s:=:v:16b-	!	!	!	!	!	!	!	!	!	!	!
8AA/J	.	(16b/L	(16dd\L	.	.	.	.	.	.	.	.	(16b/L	(16dd\L
.	.	16a-/JJ)	16cc\JJ)	.	.	.	.	.	.	.	.	16a-/JJ)	16cc\JJ)
*	*	*	*	*	*ij	*	*ij	*	*	*	*ij	*	*
8r	.	8a-/L	8cc\L	8A-X\	Sal-	8e-\	Sal-	8a-X\	.	8cc\	Sal-	8a-X/L	8cc\L
!	!	!LO:SIC:o:s:=:v:16b-	!	!	!	!	!	!	!	!	!	!	!
8F\	.	(16b/L	(16dd\L	8A-\	-va	8e-\	-va	8a-\	.	8cc\	-va	(16b/L	(16dd\L
.	.	16a-/JJ)	16cc\JJ)	.	.	.	.	.	.	.	.	16a-/JJ)	16cc\JJ)
=27	=27	=27	=27	=27	=27	=27	=27	=27	=27	=27	=27	=27	=27
4G\	.	4g/	4bn\	4G\	me	4d\	me	4g\	.	4bn\	me	4bn\	4dd\
8r	.	8r	8r	8r	.	8r	.	8r	.	8r	.	8r	8r
*	*	*	*	*	*Xij	*	*Xij	*	*	*	*Xij	*	*
!	!	!	!	!	!	!LO:LB:g=original	!	!	!	!	!	!	!
8C/	.	8ee-\	8gg\	8C/	fons	8c\	fons	8g\	.	8ee-\	fons	8g/	8ee-\
!LO:TX:a:t=P:mixed beam:problem	!	!	!	!	!	!	!	!	!	!	!	!	!
8F\L	.	8cc\L	8aa-X\L	8F\	pi-	8f\	pi-	8a-X\	.	8cc\	pi-	8a-X/L	8cc\L
8C\	.	8cc\J	8gg\J	8C/	-ae-	8e-\	-e-	8a-\	.	8cc\	-e-	8g/J	16dd\L
.	.	.	.	.	.	.	.	.	.	.	.	.	16ee-\JJ
!	!	!	!	!LO:TX:a:t=P:mixed beam:problem	!	!	!	!	!	!	!	!	!
8G\	.	4bn\	4gg\	8G\L	-ta-	4d\	-ta-	4g\	.	4bn\	-ta-	4g/	8.ddt\L
8GG/J	.	.	.	8GG/J	.	.	.	.	.	.	.	.	.
.	.	.	.	.	.	.	.	.	.	.	.	.	16cc\Jk
!	!	!	!	!	!	!	!	!	!	!	!	!LO:LB:g=original	!
=28	=28	=28	=28	=28	=28	=28	=28	=28	=28	=28	=28	=28	=28
4C/	.	4cc\	4gg\	4C/	-tis	4c\	-tis	4g\	.	4cc\	-tis	4e-/	4cc\
8r	.	8r	8r	8r	.	8r	.	8r	.	8r	.	8r	8r
*	*	*	*	*	*ij	*	*ij	*	*	*	*	*	*
8C/	.	8ee-\	8gg\	8C/	fons	8e-\	fons	8g\	.	8ee-\	fons	8g/	8ee-\
!LO:TX:a:t=P:mixed beam:problem	!	!	!	!	!	!	!	!	!	!	!	!	!
8F\L	.	8cc\L	8aa-X\L	8F\	pi-	8f\	pi-	8a-X\	.	8cc\	pi-	8a-X/L	8cc\L
8C\	.	8cc\J	8gg\J	8C/	-ae-	8e-\	-e-	8g\	.	8cc\	-e-	8g/J	16dd\L
.	.	.	.	.	.	.	.	.	.	.	.	.	16ee-\JJ
8G\	.	4bn\	4gg\	4G\	-ta-	4d\	-ta-	4g\	.	4bn\	-ta-	4g/	8.dd\L
8GG/J	.	.	.	.	.	.	.	.	.	.	.	.	.
.	.	.	.	.	.	.	.	.	.	.	.	.	16cc\Jk
!	!	!	!	!	!	!	!	!LO:LB:g=original	!	!	!	!	!
=29	=29	=29	=29	=29	=29	=29	=29	=29	=29	=29	=29	=29	=29
4C/	.	4cc\	4gg\	4C/	-tis	4c\	-tis	4g\	.	4cc\	-tis	4en/	4cc\
4ryy	.	4ryy	4ryy	4r	.	4ryy	.	4r	.	4ryy	.	4ryy	4ryy
2ryy	.	2ryy	2ryy	2r	.	2ryy	.	2r	.	2ryy	.	2ryy	2ryy
*	*	*	*	*	*Xij	*	*Xij	*	*	*	*	*	*
!	!	!LO:LB:g=original	!	!	!	!	!	!	!	!	!	!	!LO:LB:g=original
=30||	=30||	=30:||	=30||	=30:||:	=30||	=30||	=30||	=30||	=30||	=30||	=30||	=30:||:	=30||
*M2/2	*	*M2/2	*M2/2	*M2/2	*	*M2/2	*	*M2/2	*	*M2/2	*	*M2/2	*M2/2
*met(c|)	*	*met(c|)	*met(c|)	*met(c|)	*	*met(c|)	*	*met(c|)	*	*met(c|)	*	*met(c|)	*met(c|)
!LO:TX:b:t=Recordare	!	!	!LO:TX:b:t=Recordare	!	!	!	!	!	!	!	!	!	!
!LO:TX:rj:b:t=Tenor.	!	!	!LO:TX:a:t=Tenor.	!LO:TX:a:t=Tenor	!	!	!	!LO:TX:b:t=Recordare	!	!LO:TX:a:t=Tenor	!	!	!LO:TX:b:t=Recordare
!LO:TX:rj:a:t=Solo	!	!LO:TX:b:t=Recordare	!LO:SIC:o:s:=:v:tempus imperfectum prolatio maior	!LO:TX:b:t=Recordare	!	!LO:TX:rj:a:t=Solo	!	!LO:TX:a:t=Tenor	!	!LO:TX:b:t=Recordare	!	!	!LO:TX:a:t=Tenor
!LO:TX:a:t=H H.	!	!	!	!	!	!	!	!	!	!	!	!	!
(16G\LL	.	00r	00r	00r	.	4r	.	00r	.	00r	.	00r	00r
16A\J)	.	.	.	.	.	.	.	.	.	.	.	.	.
8B-\J	.	.	.	.	.	.	.	.	.	.	.	.	.
!LO:TX:a:t=P:mixed beam:problem	!	!	!	!	!	!	!	!	!	!	!	!	!
8G\L	.	.	.	.	.	16B-\LL	Re-	.	.	.	.	.	.
.	.	.	.	.	.	16c\JJ	.	.	.	.	.	.	.
8GG/J	.	.	.	.	.	8d\	-cor-	.	.	.	.	.	.
4r	.	.	.	.	.	4G/	-da-	.	.	.	.	.	.
(16G\LL	.	.	.	.	.	4G/	-re	.	.	.	.	.	.
16A\J)	.	.	.	.	.	.	.	.	.	.	.	.	.
8B-\J	.	.	.	.	.	.	.	.	.	.	.	.	.
=31	=31	=31	=31	=31	=31	=31	=31	=31	=31	=31	=31	=31	=31
!LO:TX:a:t=P:mixed beam:problem	!	!	!	!	!	!	!	!	!	!	!	!	!
8G\L	.	.	.	.	.	4r	.	.	.	.	.	.	.
8GG/J	.	.	.	.	.	.	.	.	.	.	.	.	.
*	*	*	*	*	*	*	*ij	*	*	*	*	*	*
4r	.	.	.	.	.	16B-\LL	Re-	.	.	.	.	.	.
.	.	.	.	.	.	16c\JJ	.	.	.	.	.	.	.
.	.	.	.	.	.	8d\	-cor-	.	.	.	.	.	.
!LO:LB:g=original	!	!	!	!	!	!	!	!	!	!	!	!	!
4r	.	.	.	.	.	4G/	-da-	.	.	.	.	.	.
(16G\LL	.	.	.	.	.	4G/	-e	.	.	.	.	.	.
16A\J)	.	.	.	.	.	.	.	.	.	.	.	.	.
8B-\J	.	.	.	.	.	.	.	.	.	.	.	.	.
*	*	*	*	*	*	*	*Xij	*	*	*	*	*	*
=32	=32	=32	=32	=32	=32	=32	=32	=32	=32	=32	=32	=32	=32
!LO:TX:a:t=P:mixed beam:problem	!	!	!	!	!	!	!	!	!	!	!	!	!
8B-\L	6	.	.	.	.	(16c\LL	Je-	.	.	.	.	.	.
.	5	.	.	.	.	16B-\JJ)	.	.	.	.	.	.	.
8A\	.	.	.	.	.	(16A\LL	-su	.	.	.	.	.	.
.	.	.	.	.	.	16B-\JJ)	.	.	.	.	.	.	.
8d\	.	.	.	.	.	4F#X/	pi-	.	.	.	.	.	.
.	4	.	.	.	.	.	.	.	.	.	.	.	.
8D/J	3	.	.	.	.	.	.	.	.	.	.	.	.
4GG/	.	.	.	.	.	4G/	-e	.	.	.	.	.	.
(16G\LL	.	.	.	.	.	4r	.	.	.	.	.	.	.
16A\J)	.	.	.	.	.	.	.	.	.	.	.	.	.
8B-\J	.	.	.	.	.	.	.	.	.	.	.	.	.
=33	=33	=33	=33	=33	=33	=33	=33	=33	=33	=33	=33	=33	=33
!LO:TX:a:t=P:mixed beam:problem	!	!	!	!	!	!	!	!	!	!	!	!	!
.	6	.	.	.	.	.	.	.	.	.	.	.	.
*	*	*	*	*	*	*	*ij	*	*	*	*	*	*
8B-\L	5	.	.	.	.	(16c\LL	Je-	.	.	.	.	.	.
.	.	.	.	.	.	16B-\JJ)	.	.	.	.	.	.	.
8A\	.	.	.	.	.	(16A\LL	-su	.	.	.	.	.	.
.	.	.	.	.	.	16B-\JJ)	.	.	.	.	.	.	.
!	!	!	!	!	!	!LO:LB:g=original	!	!	!	!	!	!	!
8d\	.	.	.	.	.	4F#X/	pi-	.	.	.	.	.	.
.	4	.	.	.	.	.	.	.	.	.	.	.	.
8D/J	3	.	.	.	.	.	.	.	.	.	.	.	.
4GG/	.	.	.	.	.	4G/	-e	.	.	.	.	.	.
(16G\LL	.	.	.	.	.	4r	.	.	.	.	.	.	.
16A\J)	.	.	.	.	.	.	.	.	.	.	.	.	.
8B-\J	.	.	.	.	.	.	.	.	.	.	.	.	.
*	*	*	*	*	*	*	*Xij	*	*	*	*	*	*
=34	=34	=34	=34	=34	=34	=34-	=34	=34	=34	=34	=34	=34	=34
8F#X\L	6	00r	00r	00r	.	8A\	quod	00r	.	00r	.	00r	00r
8G\	6	.	.	.	.	8B-\	su(m)	.	.	.	.	.	.
8F#\	6	.	.	.	.	4A/	Cau-	.	.	.	.	.	.
.	7	.	.	.	.	.	.	.	.	.	.	.	.
8En\J	6	.	.	.	.	.	.	.	.	.	.	.	.
8D\L	.	.	.	.	.	4A/	-sa	.	.	.	.	.	.
8G\	6	.	.	.	.	.	.	.	.	.	.	.	.
8F#X\	6	.	.	.	.	4r	.	.	.	.	.	.	.
.	7	.	.	.	.	.	.	.	.	.	.	.	.
8En\J	6	.	.	.	.	.	.	.	.	.	.	.	.
=35	=35	=35	=35	=35	=35	=35	=35	=35	=35	=35	=35	=35	=35
!LO:TX:a:t=P:mixed beam:problem	!	!	!	!	!	!	!	!	!	!	!	!	!
8D\L	6	.	.	.	.	(16f\LL	tu-	.	.	.	.	.	.
.	.	.	.	.	.	16en\JJ)	.	.	.	.	.	.	.
8G\	.	.	.	.	.	(16d\LL	-ae	.	.	.	.	.	.
.	.	.	.	.	.	16en\JJ)	.	.	.	.	.	.	.
8A\	.	.	.	.	.	4c#X\	vi-	.	.	.	.	.	.
.	4	.	.	.	.	.	.	.	.	.	.	.	.
8AA/J	3	.	.	.	.	.	.	.	.	.	.	.	.
4D\	.	.	.	.	.	4d\	ae	.	.	.	.	.	.
(16Fn\LL	.	.	.	.	.	4r	.	.	.	.	.	.	.
16G\J)	.	.	.	.	.	.	.	.	.	.	.	.	.
8A\J	.	.	.	.	.	.	.	.	.	.	.	.	.
=36	=36	=36	=36	=36	=36	=36	=36	=36	=36	=36	=36	=36	=36
!LO:TX:a:t=P:mixed beam:problem	!	!	!	!	!	!	!	!	!	!	!	!	!
8D\L	-	.	.	.	.	(16f\LL	tu-	.	.	.	.	.	.
.	.	.	.	.	.	16en\JJ)	.	.	.	.	.	.	.
8G\	.	.	.	.	.	(16d\LL	-ae	.	.	.	.	.	.
.	.	.	.	.	.	16en\JJ)	.	.	.	.	.	.	.
8A\	.	.	.	.	.	4c#X\	vi-	.	.	.	.	.	.
.	4	.	.	.	.	.	.	.	.	.	.	.	.
8AA/J	3	.	.	.	.	.	.	.	.	.	.	.	.
4D\	.	.	.	.	.	4d\	-ae	.	.	.	.	.	.
(16B-\LL	.	.	.	.	.	4r	.	.	.	.	.	.	.
16c\J)	.	.	.	.	.	.	.	.	.	.	.	.	.
8d\J	.	.	.	.	.	.	.	.	.	.	.	.	.
!LO:LB:g=original	!	!	!	!	!	!	!	!	!	!	!	!	!
=37	=37	=37	=37	=37	=37	=37	=37	=37	=37	=37	=37	=37	=37
(16G\LL	.	.	.	.	.	4.d\	Ne	.	.	.	.	.	.
16A\J)	.	.	.	.	.	.	.	.	.	.	.	.	.
8B-\J	.	.	.	.	.	.	.	.	.	.	.	.	.
!LO:TX:a:t=P:mixed beam:problem	!	!	!	!	!	!	!	!	!	!	!	!	!
8G\L	.	.	.	.	.	.	.	.	.	.	.	.	.
8GG/J	.	.	.	.	.	8G/	me	.	.	.	.	.	.
8D\L	.	.	.	.	.	4F#X/	per-	.	.	.	.	.	.
16En\L	.	.	.	.	.	.	.	.	.	.	.	.	.
16F#X\JJ	.	.	.	.	.	.	.	.	.	.	.	.	.
4G\	.	.	.	.	.	(8G/L	-das	.	.	.	.	.	.
.	.	.	.	.	.	16A/L	.	.	.	.	.	.	.
.	.	.	.	.	.	16B-/JJ)	.	.	.	.	.	.	.
=38	=38	=38	=38	=38	=38	=38	=38	=38	=38	=38	=38	=38	=38
!LO:TX:a:t=P:mixed beam:problem	!	!	!	!	!	!	!	!	!	!	!	!	!
8A\L	.	0r	0r	0r	.	(16c\LL	il-	0r	.	0r	.	0r	0r
.	.	.	.	.	.	16B-\JJ)	.	.	.	.	.	.	.
8G\	.	.	.	.	.	(16A\LL	-la	.	.	.	.	.	.
.	.	.	.	.	.	16B-\JJ)	.	.	.	.	.	.	.
8d\	.	.	.	.	.	4F#X/	di-	.	.	.	.	.	.
8D/J	.	.	.	.	.	.	.	.	.	.	.	.	.
4GG/	.	.	.	.	.	4G/	-e	.	.	.	.	.	.
(16B-\LL	.	.	.	.	.	4r	.	.	.	.	.	.	.
16c\J)	.	.	.	.	.	.	.	.	.	.	.	.	.
8d\J	.	.	.	.	.	.	.	.	.	.	.	.	.
=39	=39	=39	=39	=39	=39	=39	=39	=39	=39	=39	=39	=39	=39
(16G\LL	.	.	.	.	.	4.d\	ne	.	.	.	.	.	.
16A\J)	.	.	.	.	.	.	.	.	.	.	.	.	.
8B-\J	.	.	.	.	.	.	.	.	.	.	.	.	.
!LO:TX:a:t=P:mixed beam:problem	!	!	!	!	!	!	!	!	!	!	!	!	!
8G\L	.	.	.	.	.	.	.	.	.	.	.	.	.
8GG/J	.	.	.	.	.	8G/	me	.	.	.	.	.	.
8D\L	.	.	.	.	.	4F#X/	per-	.	.	.	.	.	.
16En\L	.	.	.	.	.	.	.	.	.	.	.	.	.
16F#X\JJ	.	.	.	.	.	.	.	.	.	.	.	.	.
4G\	.	.	.	.	.	(8G/L	-das	.	.	.	.	.	.
.	.	.	.	.	.	16A/L	.	.	.	.	.	.	.
.	.	.	.	.	.	16B-/JJ)	.	.	.	.	.	.	.
!	!	!	!	!	!	!LO:LB:g=original	!	!	!	!	!	!	!
=40	=40	=40	=40	=40	=40	=40	=40	=40	=40	=40	=40	=40	=40
!LO:TX:a:t=P:mixed beam:problem	!	!	!	!	!	!	!	!	!	!	!	!	!
8A\L	.	1r	1r	1r	.	(16c\LL	il-	1r	.	1r	.	1r	1r
.	.	.	.	.	.	16B-\JJ)	.	.	.	.	.	.	.
8G\	.	.	.	.	.	(16A\LL	-la	.	.	.	.	.	.
.	.	.	.	.	.	16B-\JJ)	.	.	.	.	.	.	.
8d\	.	.	.	.	.	4F#X/	di-	.	.	.	.	.	.
8D/J	.	.	.	.	.	.	.	.	.	.	.	.	.
(16G\LL	.	.	.	.	.	4G/	-e	.	.	.	.	.	.
16A\J)	.	.	.	.	.	.	.	.	.	.	.	.	.
8B-\J	.	.	.	.	.	.	.	.	.	.	.	.	.
!LO:TX:a:t=P:mixed beam:problem	!	!	!	!	!	!	!	!	!	!	!	!	!
8D\L	.	.	.	.	.	4r	.	.	.	.	.	.	.
8DD/J	.	.	.	.	.	.	.	.	.	.	.	.	.
==-	==	==	==	==	==	==	==	==	==	==	==	==	==
*-	*-	*-	*-	*-	*-	*-	*-	*-	*-	*-	*-	*-	*-
!!!system-decoration: [(s1,s2)][(s3,s4,s5,s6)][(s7,s8)]s9
!!!EED: Leszek Kubiak
!!!EST: 2020-12-02
!!!ENC: Krzysztof Stępień
!!!END: 2020-04-21
